app/assets/images/icons/active/article.svg

<svg width="32" height="232" viewBox="0 0 32 232" xmlns="http://www.w3.org/2000/svg"><title>article</title><g fill="none"><path d="M23.754 163h-15.507c-1.239 0-2.246 1.039-2.246 2.316v22.37c0 1.278 1.007 2.314 2.246 2.314h15.507c1.241 0 2.246-1.036 2.246-2.314v-22.37c0-1.277-1.005-2.316-2.246-2.316zm-15.615 3.166h4.726v2.199h-4.726v-2.199zm0 14.649h11.041v2.181h-11.041v-2.181zm15.758-2.718l-15.758.018v-2.113l15.758-.035v2.13zm0-4.871l-15.758.064v-2.162l15.758-.017v2.115zm0 0" fill="#C7E6AA"/><path d="M23.754 123h-15.507c-1.239 0-2.246 1.039-2.246 2.316v22.37c0 1.278 1.007 2.314 2.246 2.314h15.507c1.241 0 2.246-1.036 2.246-2.314v-22.37c0-1.277-1.005-2.316-2.246-2.316zm-15.615 3.166h4.726v2.199h-4.726v-2.199zm0 14.649h11.041v2.181h-11.041v-2.181zm15.758-2.718l-15.758.018v-2.113l15.758-.035v2.13zm0-4.871l-15.758.064v-2.162l15.758-.017v2.115zm0 0" fill="#206FAC"/><path d="M23.754 83h-15.507c-1.239 0-2.246 1.039-2.246 2.316v22.37c0 1.278 1.007 2.314 2.246 2.314h15.507c1.241 0 2.246-1.036 2.246-2.314v-22.37c0-1.277-1.005-2.316-2.246-2.316zm-15.615 3.166h4.726v2.199h-4.726v-2.199zm0 14.649h11.041v2.181h-11.041v-2.181zm15.758-2.718l-15.758.018v-2.113l15.758-.035v2.13zm0-4.871l-15.758.064v-2.162l15.758-.017v2.115zm0 0" fill="#fff"/><path d="M23.754 43h-15.507c-1.239 0-2.246 1.039-2.246 2.316v22.37c0 1.278 1.007 2.314 2.246 2.314h15.507c1.241 0 2.246-1.036 2.246-2.314v-22.37c0-1.277-1.005-2.316-2.246-2.316zm-15.615 3.166h4.726v2.199h-4.726v-2.199zm0 14.649h11.041v2.181h-11.041v-2.181zm15.758-2.718l-15.758.018v-2.113l15.758-.035v2.13zm0-4.871l-15.758.064v-2.162l15.758-.017v2.115zm0 0" fill="#67747C"/><path d="M23.754 3h-15.507c-1.239 0-2.246 1.039-2.246 2.316v22.37c0 1.278 1.007 2.314 2.246 2.314h15.507c1.241 0 2.246-1.036 2.246-2.314v-22.37c0-1.277-1.005-2.316-2.246-2.316zm-15.615 3.166h4.726v2.199h-4.726v-2.199zm0 14.649h11.041v2.181h-11.041v-2.181zm15.758-2.718l-15.758.018v-2.113l15.758-.035v2.13zm0-4.871l-15.758.064v-2.162l15.758-.017v2.115zm0 0" fill="#3B444F"/></g></svg>

<svg width="32" height="232" viewBox="0 0 32 232" xmlns="http://www.w3.org/2000/svg"><title>article</title><g fill="none"><path d="M23.754 163H8.247C7.007 163 6 164.04 6 165.316v22.37C6 188.964 7.01 190 8.248 190h15.507c1.24 0 2.246-1.036 2.246-2.314v-22.37c0-1.277-1.005-2.316-2.246-2.316zM8.14 166.166h4.725v2.2H8.14v-2.2zm0 14.65h11.04v2.18H8.14v-2.18zm15.757-2.72l-15.758.02V176l15.757-.035v2.13zm0-4.87l-15.758.064v-2.162l15.757-.017v2.116zm0 0" fill="#C7E6AA"/><path d="M23.754 123H8.247C7.007 123 6 124.04 6 125.316v22.37C6 148.964 7.01 150 8.248 150h15.507c1.24 0 2.246-1.036 2.246-2.314v-22.37c0-1.277-1.005-2.316-2.246-2.316zM8.14 126.166h4.725v2.2H8.14v-2.2zm0 14.65h11.04v2.18H8.14v-2.18zm15.757-2.72l-15.758.02V136l15.757-.035v2.13zm0-4.87l-15.758.064v-2.162l15.757-.017v2.116zm0 0" fill="#206FAC"/><path d="M23.754 83H8.247C7.007 83 6 84.04 6 85.316v22.37C6 108.964 7.01 110 8.248 110h15.507c1.24 0 2.246-1.036 2.246-2.314v-22.37C26 84.04 24.995 83 23.754 83zM8.14 86.166h4.725v2.2H8.14v-2.2zm0 14.65h11.04v2.18H8.14v-2.18zm15.757-2.72l-15.758.02V96l15.757-.035v2.13zm0-4.87L8.14 93.29v-2.162l15.757-.017v2.116zm0 0" fill="#fff"/><path d="M23.754 43H8.247C7.007 43 6 44.04 6 45.316v22.37C6 68.964 7.01 70 8.248 70h15.507C24.994 70 26 68.964 26 67.686v-22.37C26 44.04 24.995 43 23.754 43zM8.14 46.166h4.725v2.2H8.14v-2.2zm0 14.65h11.04v2.18H8.14v-2.18zm15.757-2.72l-15.758.02V56l15.757-.035v2.13zm0-4.87L8.14 53.29v-2.162l15.757-.017v2.116zm0 0" fill="#67747C"/><path d="M23.754 3H8.247C7.007 3 6 4.04 6 5.316v22.37C6 28.964 7.01 30 8.248 30h15.507C24.994 30 26 28.964 26 27.686V5.316C26 4.04 24.995 3 23.754 3zM8.14 6.166h4.725v2.2H8.14v-2.2zm0 14.65h11.04v2.18H8.14v-2.18zm15.757-2.72l-15.758.02V16l15.757-.035v2.13zm0-4.87L8.14 13.29v-2.162l15.757-.017v2.116zm0 0" fill="#3B444F"/></g></svg>
